!!!!SEGMENT: pl-wtm--r-1461--020_stefani-jozef-wszechstronne-cwiczenia-glosowe-allegro.krn
!!!id: 18xx:2197
!!!COM: Stefani, Józef
!!!OTL: Wszechstronne ćwiczenia głosowe – Allegro
!!!PDT:
!!!SMS-siglum: PL-Wtm
!!!SMS-shelfmark: R 1461
!!!NIFC-rismID: 1001120710
!!!URL-scan: http://repozytorium.nifc.pl/skany/pl-wtm-nut--r1461
!!!ONB-nifc: UWAGA: skan 0018, s. 32-33
!!!SMS-variant:
!!!SMS-altvar:
**kern	**kern	**kern	**dynam
*part2	*part2	*part1	*part1
*staff3	*staff2	*staff1	*
*I"Fortepian	*I"Fortepian	*I"Sopran/Tenor	*
*clefF4	*clefG2	*clefG2	*
*k[]	*k[]	*k[]	*
*M4/4	*M4/4	*M4/4	*
*met(c)	*met(c)	*met(c)	*
=1	=1	=1	=1
*all\right	*all\right	*all\right	*
*2\right	*2\right	*2\right	*
!	!	!LO:TX:a:i:t=Allegro.	!
2C\	2c 2G< 2E</	(<16c/LL	.
.	.	16d/	.
.	.	16e/	.
.	.	16f/JJ	.
.	.	16g/LL	.
.	.	16a/	.
!	!	!	!LO:HP:b
.	.	(>16b/)	<
.	.	16cc/JJ	.
2BB\	2d 2G</	16d/LL	[
.	.	(<16e/)	.
.	.	16f/	.
.	.	16g/JJ	.
.	.	16a/LL	.
.	.	16b/	.
.	.	16cc/	.
!	!	!	!LO:HP:b
.	.	(>16dd/JJ)	<
=2	=2	=2	=2
2C\	2e 2c 2G</	16e/LL)	[
.	.	(>16f/	.
.	.	16g/	.
.	.	16a/JJ	.
.	.	16b\LL	.
.	.	16cc\	.
!	!	!	!LO:HP:b
.	.	16dd\	<
.	.	(>16ee\JJ)	.
2D\	2f 2B 2G</	16f/LL)	[
.	.	(>16g/	.
.	.	16a/	.
.	.	16b/JJ	.
.	.	16cc\LL	.
.	.	16dd\	.
.	.	16ee\	.
.	.	(>16ff\JJ)	.
!!LO:LB:g=original
=3	=3	=3	=3
2E\	2e 2c 2G</	(>16g\LL)	.
.	.	16a\	.
.	.	16b\	.
.	.	16cc\JJ	.
.	.	16dd\LL	.
.	.	16ee\	.
!	!	!	!LO:HP:b
.	.	16ff\	<
.	.	(>16gg\JJ)	.
2D\	2f 2B 2G</	(>16f/LL)	[
.	.	16g/	.
.	.	16a/	.
.	.	16b/JJ	.
.	.	16cc\LL	.
.	.	16dd\	.
.	.	16ee\	.
!	!	!	!LO:HP:b
.	.	(>16ff\JJ)	<
=4	=4	=4	=4
2C\	2e 2c 2G</	16e/LL)	[
.	.	(>16f/	.
.	.	16g/	.
.	.	16a/JJ	.
.	.	16b\LL	.
.	.	16cc\	.
.	.	16dd\	.
!	!	!	!LO:HP:b
.	.	(>16ee\JJ)	<
2FF\	2d 2A< 2F</	16d/LL)	.
.	.	(>16e/	[
.	.	16f/	.
.	.	16g/JJ	.
.	.	16a/LL	.
.	.	16b/	.
.	.	16cc/	.
!	!	!	!LO:HP:b
.	.	(>16dd/JJ)	<
!!LO:LB:g=original
=5	=5	=5	=5
2GG\	2c 2G< 2E</	16c/LL)	.
.	.	(<16d/	[
.	.	16e/	.
.	.	16f/JJ	.
.	.	16g/LL	.
.	.	16a/	.
!	!	!	!LO:HP:b
.	.	(>16b/)	<
.	.	16cc/JJ	.
2GG\	2B 2G< 2F</	16B/LL	.
.	.	(<16c/)	[
.	.	16d/	.
.	.	16e/JJ	.
.	.	16f/LL	.
.	.	16g/	.
.	.	16a/	.
.	.	16b/JJ)	.
=6	=6	=6||	=6||
2C 2CC\	2c 2G< 2E</	2cc\	.
2r	2r	2r	.
=7||	=7||	=7||	=7||
2C\	2c 2G< 2E</	(<16cc/LL	.
.	.	16b/	.
.	.	16a/	.
.	.	16g/JJ	.
.	.	16f/LL	.
.	.	16e/	.
.	.	16d/)	.
!	!	!	!LO:HP:b
.	.	(>16c/JJ	<
2BB\	2d 2G</	(<16dd/LL)	.
.	.	16cc/	[
.	.	16b/	.
.	.	16a/JJ	.
.	.	16g/LL	.
.	.	16f/	.
.	.	16e/)	.
!	!	!	!LO:HP:b
.	.	(>16d/JJ	<
!!LO:LB:g=original
=8	=8	=8	=8
2G 2C\	2e 2c 2G</	(>16ee\LL)	.
.	.	16dd\	[
.	.	16cc\	.
.	.	16b\JJ	.
.	.	16a/LL	.
.	.	16g/	.
.	.	16f/)	.
!	!	!	!LO:HP:b
.	.	(>16e/JJ	<
2D\	2f 2B 2G</	16ff\LL)	.
.	.	(>16ee\	[
.	.	16dd\	.
.	.	16cc\JJ	.
.	.	16b/LL	.
.	.	16a/	.
.	.	16g/	.
!	!	!	!LO:HP:b
.	.	(>16f/JJ)	<
=9	=9	=9	=9
2E\	2g 2c 2G</	(>16gg\LL)	.
.	.	16ff\	[
.	.	16ee\	.
.	.	16dd\JJ	.
.	.	16cc\LL	.
.	.	16b\	.
!	!	!	!LO:HP:b
.	.	16a\	<
.	.	(>16g\JJ)	.
2F\	2f 2d 2A</	16ff\LL)	.
.	.	(>16ee\	[
.	.	16dd\	.
.	.	16cc\JJ	.
.	.	16b/LL	.
.	.	16a/	.
.	.	16g/	.
!	!	!	!LO:HP:b
.	.	(>16f/JJ)	<
!!LO:LB:g=original
=10	=10	=10	=10
2G\	2e 2c/	(>16ee\LL)	.
.	.	16dd\	[
.	.	16cc\	.
.	.	16b\JJ	.
.	.	16a/LL	.
.	.	16g/	.
.	.	16f/)	.
!	!	!	!LO:HP:b
.	.	(>16e/JJ	<
2F 2GG\	2d 2B/	(<16dd/LL)	.
.	.	16cc/	[
.	.	16b/	.
.	.	16a/JJ	.
.	.	16g/LL	.
.	.	16f/	.
.	.	16e/	.
.	.	16d/JJ)	.
=11	=11	=11	=11
2E 2C\	2c/	2c/	.
2r	2r	2r	.
==	==	==	==
*-	*-	*-	*-
!!!system-decoration: s1{(s2,s3)}
!!!RDF**kern: > = above
!!!RDF**kern: < = below
!!!ENC: Andrzej Gręziak
!!!END: 2021-05-18
!!!EED: Antoni Szymański
!!!EST: 2021-06-03
